X:1
T:Lady Huntly's Strathspey
T:Lady Huntly's Strathspey
T:Neil Gow Jr. (1795-1823)
C:Neil Gow Jr. (1795-1823)
L:1/8
M:2/2
K:Eb
V:1 treble 
V:1
 B | (G/A/B) g>f eB c2 | B>Ge>G fF FA | (G/A/B) g>f eB c2 | B>c (c/B/)(A/G/){G} BEE :| B | %6
{A} G>EB,E G,EB,E | B>Ge>G AFFB |{A} G>EB,E G,EB,E | B>Ge>G{G} BEEB |{A} G>EB,E G,EB,E | %11
 B>Ge>G AFF B/A/ | GeBg eG BE | AB/c/ D>B GEE || %14

